images/icon-workshops.svg

<svg width="27" height="27" viewBox="0 0 27 27" fill="none" xmlns="http://www.w3.org/2000/svg">
<path d="M18.2139 8.18171C17.924 8.18171 17.6887 8.41737 17.6887 8.70885C17.6887 9.00013 17.924 9.2362 18.2139 9.2362C18.5043 9.2362 18.739 9.00013 18.739 8.70885C18.739 8.41737 18.5043 8.18171 18.2139 8.18171Z" fill="#EB5757"/>
<path d="M8.67236 17.7631C8.3819 17.7631 8.14723 17.9994 8.14723 18.2905C8.14723 18.5821 8.3819 18.8178 8.67236 18.8178C8.96222 18.8178 9.1975 18.5821 9.1975 18.2905C9.1975 17.9994 8.96222 17.7631 8.67236 17.7631Z" fill="#EB5757"/>
<path d="M26.2337 3.24425C26.0565 3.20284 25.8702 3.25661 25.7422 3.38638L23.5652 5.5899H22.5214L21.3725 4.39452V3.33179L23.5184 1.14476C23.6454 1.01539 23.6971 0.829381 23.655 0.652433C23.6132 0.47569 23.4835 0.333142 23.312 0.275052C22.7729 0.0925413 22.2088 5.00327e-05 21.6351 5.00327e-05C19.9247 5.00327e-05 18.3708 0.800954 17.3718 2.19739C16.4368 3.50462 16.1486 5.10664 16.5615 6.63985L12.6934 10.5243L6.24894 4.03794V2.7649C6.24894 2.57971 6.15211 2.40791 5.99396 2.31274L2.28086 0.0752378C2.07409 -0.0493885 1.80967 -0.0166355 1.63941 0.154545L0.154259 1.64574C-0.0160003 1.81692 -0.0486163 2.08244 0.0752835 2.29008L2.30302 6.01878C2.39779 6.1776 2.56866 6.27462 2.75308 6.27483L4.02038 6.27524L10.4654 12.7616L6.61202 16.6312C5.08522 16.2167 3.48909 16.5065 2.18671 17.4461C0.796938 18.4487 0 20.0086 0 21.7262C0 22.3022 0.0921043 22.8689 0.273851 23.41C0.331904 23.5833 0.475291 23.7141 0.652525 23.7553C0.829964 23.7967 1.01602 23.7429 1.14423 23.6131L3.32109 21.4098H4.37054L5.56626 22.6106V23.6644L3.37216 25.8504C3.24293 25.9792 3.18939 26.166 3.23062 26.3442C3.27165 26.5222 3.40191 26.6662 3.57442 26.7245C4.11331 26.907 4.67762 26.9995 5.25117 26.9995C6.96156 26.9995 8.51482 26.199 9.51341 24.8034C10.449 23.4955 10.7376 21.8929 10.3249 20.3597L13.4197 17.2518L14.1287 18.0251L13.8033 18.3516C13.5982 18.5576 13.5982 18.8915 13.8033 19.0975C14.0085 19.3033 14.3408 19.3033 14.5461 19.0975L14.8407 18.8017L21.4923 26.0572C21.4972 26.0626 21.5023 26.0677 21.5075 26.0729C22.7383 27.3089 24.7324 27.3093 25.9638 26.0727C27.1917 24.839 27.1917 22.8316 25.9638 21.5979C25.9584 21.5925 25.9529 21.5874 25.9473 21.5822L18.7109 14.9154L19.0022 14.6229C19.2073 14.4171 19.2073 14.0832 19.0022 13.8772C18.7971 13.6712 18.4648 13.6712 18.2594 13.8772L17.9363 14.2019L17.1648 13.4908L20.2746 10.3679C20.7167 10.4866 21.1729 10.5467 21.6351 10.5467C24.5307 10.5467 26.8862 8.1811 26.8862 5.27349C26.8862 4.69733 26.7941 4.13085 26.6124 3.58949C26.5543 3.41625 26.4109 3.28545 26.2337 3.24425ZM4.60993 5.37546C4.51147 5.27638 4.37793 5.22591 4.23844 5.22591L3.05072 5.2255L1.18689 2.10057L2.09214 1.19152L5.19866 3.06359V4.2563C5.19866 4.39596 5.25384 4.52986 5.3521 4.62873L11.9508 11.2702L11.208 12.0159L4.60993 5.37546ZM17.9675 15.662L25.2286 22.3512C26.0397 23.1744 26.0372 24.5071 25.221 25.3272C24.4029 26.1487 23.0786 26.1512 22.2572 25.3344L15.5839 18.0552L17.9675 15.662ZM17.1929 14.9482L14.8719 17.2786L14.1629 16.5053L16.4214 14.2371L17.1929 14.9482ZM21.6351 9.49204C21.1758 9.49204 20.7241 9.41809 20.2929 9.27225C20.104 9.20859 19.8951 9.25762 19.754 9.39914C17.1213 12.0429 11.4486 17.7392 9.35976 19.8371C9.21863 19.9788 9.1696 20.1885 9.2334 20.3784C9.66992 21.6801 9.4611 23.0685 8.66026 24.1881C7.86168 25.3043 6.61899 25.9448 5.25117 25.9448C5.09753 25.9448 4.94471 25.9363 4.79332 25.9201L6.46125 24.2581C6.56053 24.1592 6.61653 24.0245 6.61653 23.8838V22.392C6.61653 22.2521 6.56115 22.118 6.46268 22.0191L4.95927 20.5094C4.86081 20.4105 4.72727 20.3549 4.58798 20.3549H3.10242C2.96231 20.3549 2.82815 20.4112 2.72949 20.5109L1.07469 22.1858C1.05828 22.0338 1.05007 21.8803 1.05007 21.726C1.05007 20.3522 1.68762 19.1045 2.79944 18.3026C3.91412 17.4984 5.29692 17.2885 6.59335 17.7271C6.78228 17.7911 6.9911 17.7419 7.13223 17.6002C7.16116 17.5713 17.5191 7.16967 17.5265 7.16225C17.6676 7.02053 17.7164 6.81103 17.6528 6.6211C17.2161 5.31943 17.4245 3.93144 18.2247 2.81269C19.0239 1.69538 20.2668 1.05474 21.6349 1.05474C21.7932 1.05474 21.9506 1.0636 22.1065 1.0809L20.4732 2.74554C20.3764 2.84421 20.3222 2.97707 20.3222 3.1155V4.60731C20.3222 4.74409 20.3749 4.87531 20.4695 4.97357L21.9204 6.48329C22.0193 6.58629 22.1557 6.64438 22.2983 6.64438H23.7838C23.9237 6.64438 24.0579 6.58835 24.1565 6.48844L25.8113 4.81371C25.8278 4.96574 25.836 5.1192 25.836 5.27349C25.836 7.59958 23.9514 9.49204 21.6351 9.49204Z" fill="#EB5757"/>
<path d="M16.3574 9.8274L9.78603 16.4264C9.5811 16.6322 9.5811 16.9661 9.78603 17.1721C9.99116 17.3781 10.3237 17.3781 10.5288 17.1721L17.1002 10.5731C17.3053 10.3673 17.3053 10.0334 17.1002 9.8274C16.8951 9.62141 16.5626 9.62141 16.3574 9.8274Z" fill="#EB5757"/>
<path d="M22.9935 23.836C23.1986 24.0414 23.5311 24.0414 23.7362 23.8348C23.941 23.6286 23.9403 23.2947 23.735 23.0891L19.0016 18.351C18.7962 18.1454 18.4635 18.1461 18.259 18.3523C18.0541 18.5587 18.0547 18.8924 18.26 19.0979L22.9935 23.836Z" fill="#EB5757"/>
</svg>

<svg width="27" height="27" fill="none" xmlns="http://www.w3.org/2000/svg"><path d="M18.214 8.182a.526.526 0 10.002 1.052.526.526 0 00-.002-1.052zm-9.542 9.581a.526.526 0 00-.525.527.526.526 0 101.05 0 .526.526 0 00-.525-.527z" fill="#EB5757"/><path d="M26.234 3.244a.523.523 0 00-.492.142L23.565 5.59h-1.044l-1.149-1.195V3.332l2.146-2.187a.528.528 0 00-.206-.87A5.218 5.218 0 0021.635 0c-1.71 0-3.264.801-4.263 2.197a5.23 5.23 0 00-.81 4.443l-3.869 3.884L6.25 4.038V2.765a.528.528 0 00-.255-.452L2.281.075a.523.523 0 00-.642.08L.154 1.645a.53.53 0 00-.079.645l2.228 3.73a.525.525 0 00.45.256H4.02l6.445 6.487-3.853 3.87a5.175 5.175 0 00-4.425.814A5.22 5.22 0 000 21.726c0 .576.092 1.143.274 1.684a.525.525 0 00.87.203l2.177-2.203h1.05l1.195 1.2v1.054L3.372 25.85a.529.529 0 00.202.874A5.217 5.217 0 005.251 27c1.71 0 3.264-.801 4.262-2.197a5.232 5.232 0 00.812-4.443l3.095-3.108.709.773-.326.327a.529.529 0 000 .745.524.524 0 00.743 0l.295-.295 6.651 7.255.015.016a3.14 3.14 0 004.457 0 3.178 3.178 0 000-4.475l-.017-.016-7.236-6.667.291-.292a.529.529 0 000-.746.524.524 0 00-.743 0l-.323.325-.771-.711 3.11-3.123a5.24 5.24 0 001.36.179c2.896 0 5.251-2.366 5.251-5.274 0-.576-.092-1.142-.274-1.684a.526.526 0 00-.378-.345zM4.61 5.375a.519.519 0 00-.372-.15H3.051L1.187 2.102l.905-.91L5.2 3.065v1.192c0 .14.055.274.153.373l6.599 6.641-.743.746-6.598-6.64zm13.358 10.287l7.26 6.69a2.12 2.12 0 01-.007 2.975 2.094 2.094 0 01-2.964.007l-6.673-7.279 2.384-2.393zm-.775-.714l-2.321 2.33-.71-.773 2.26-2.268.77.711zm4.442-5.456c-.46 0-.91-.074-1.342-.22a.524.524 0 00-.539.127L9.36 19.837a.529.529 0 00-.127.541 4.19 4.19 0 01-.573 3.81 4.148 4.148 0 01-3.409 1.757c-.153 0-.306-.009-.458-.025l1.668-1.662a.528.528 0 00.156-.374v-1.492a.529.529 0 00-.154-.373l-1.504-1.51a.524.524 0 00-.371-.154H3.102a.525.525 0 00-.373.156l-1.654 1.675a4.284 4.284 0 01-.025-.46c0-1.374.638-2.621 1.75-3.423a4.143 4.143 0 013.793-.576.523.523 0 00.54-.127L17.525 7.162a.529.529 0 00.127-.54 4.188 4.188 0 01.572-3.81 4.149 4.149 0 013.41-1.757c.158 0 .316.009.471.026l-1.633 1.665a.528.528 0 00-.15.37v1.491c0 .137.052.268.146.367l1.451 1.51a.524.524 0 00.378.16h1.486c.14 0 .274-.056.373-.156l1.654-1.674c.017.152.025.305.025.46 0 2.326-1.885 4.218-4.2 4.218z" fill="#EB5757"/><path d="M16.357 9.827l-6.571 6.6a.53.53 0 000 .745.524.524 0 00.743 0l6.571-6.599a.529.529 0 000-.746.524.524 0 00-.743 0zm6.637 14.009a.524.524 0 00.742-.001.529.529 0 00-.001-.746l-4.733-4.738a.524.524 0 00-.743.001.529.529 0 00.001.746l4.733 4.738z" fill="#EB5757"/></svg>
